public/images/corner-dashed-tr.svg

<?xml version="1.0" encoding="UTF-8" standalone="no"?>
<!DOCTYPE svg PUBLIC "-//W3C//DTD SVG 1.1//EN" "http://www.w3.org/Graphics/SVG/1.1/DTD/svg11.dtd">
<svg width="100%" height="100%" viewBox="0 0 112 52" version="1.1" xmlns="http://www.w3.org/2000/svg" xmlns:xlink="http://www.w3.org/1999/xlink" xml:space="preserve" xmlns:serif="http://www.serif.com/" style="fill-rule:evenodd;clip-rule:evenodd;stroke-linejoin:round;stroke-miterlimit:2;">
    <path d="M21.84,1.74C20.36,2 19.13,2.26 17.84,2.41C16.676,2.553 15.502,2.607 14.33,2.57C14.1,2.57 13.7,1.85 13.73,1.5C13.76,1.15 14.22,0.5 14.5,0.5C16.57,0.5 18.64,0.63 20.7,0.71C21.061,0.689 21.423,0.709 21.78,0.77C21.93,0.77 22.06,1.17 22.04,1.38C22.02,1.59 21.85,1.72 21.84,1.74ZM27.53,1.08C27.79,0.36 28.42,0.39 28.94,0.35C30.08,0.297 31.223,0.324 32.36,0.43C33.13,0.561 33.909,0.637 34.69,0.66C35.26,0.61 35.55,0.83 35.74,1.46C35.739,1.575 35.683,1.683 35.59,1.75C33.75,2.05 32.04,2.02 30.2,2.31C29.84,2.37 29.48,2.48 29.12,2.57C29.059,2.578 28.998,2.582 28.937,2.582C28.163,2.582 27.527,1.945 27.527,1.172C27.527,1.141 27.528,1.111 27.53,1.08ZM6.89,2C5.82,2.16 4.03,2.28 3.28,2.4C2.553,2.56 1.814,2.657 1.07,2.69C0.674,2.59 0.322,2.362 0.07,2.04C-0.01,1.96 0.23,1.55 0.33,1.3C0.68,0.23 1.61,0.61 2.4,0.59C3.19,0.57 5.48,0.9 6.32,0.85C7.16,0.8 7.43,1.01 7.08,1.85C7,2 6.78,2.08 6.89,2ZM63.14,1.49C61.66,1.75 60.43,2.01 59.14,2.15C57.977,2.302 56.803,2.358 55.63,2.32C55.4,2.32 55,1.6 55.03,1.25C55.06,0.9 55.53,0.25 55.8,0.25C57.87,0.25 59.94,0.38 62.01,0.46C62.366,0.424 62.724,0.424 63.08,0.46C63.23,0.51 63.36,0.87 63.35,1.08C63.34,1.29 63.15,1.47 63.14,1.49ZM68.84,0.83C69.09,0.11 69.72,0.14 70.25,0.1C71.387,0.042 72.527,0.069 73.66,0.18C74.434,0.311 75.216,0.387 76,0.41C76.57,0.41 76.86,0.58 77.05,1.21C77.05,1.29 76.97,1.49 76.9,1.5C75.06,1.8 73.35,1.77 71.51,2.06C71.15,2.12 70.79,2.23 70.43,2.32C70.366,2.329 70.301,2.333 70.236,2.333C69.468,2.333 68.836,1.702 68.836,0.933C68.836,0.899 68.837,0.864 68.84,0.83ZM48.19,1.77C47.12,1.93 45.33,2.05 44.58,2.16C43.854,2.328 43.114,2.429 42.37,2.46C41.974,2.36 41.622,2.132 41.37,1.81C41.29,1.72 41.53,1.32 41.63,1.06C42,0 42.91,0.36 43.7,0.34C44.49,0.32 46.79,0.65 47.63,0.6C48.47,0.55 48.73,0.76 48.38,1.6C48.33,1.78 48.08,1.83 48.19,1.77ZM104.26,1.25C102.62,1.49 101.26,1.76 100.08,1.91C98.983,2.051 97.876,2.105 96.77,2.07C96.56,2.07 96.3,1.35 96.38,1C96.46,0.65 97.06,0 97.38,0C99.61,0 101.79,0.12 103.86,0.27C104.219,0.253 104.578,0.28 104.93,0.35C105.05,0.4 104.93,0.72 104.79,0.9C104.629,1.039 104.451,1.157 104.26,1.25ZM110,2.45C110.74,2.21 111.09,2.8 111.29,3.3C111.66,4.458 111.66,5.702 111.29,6.86C111.11,7.67 110.65,8.55 110.5,9.28C110.352,9.878 109.905,10.358 109.32,10.55C109.23,10.55 109.04,10.55 109.05,10.5C109.24,8.9 109.88,7.31 109.48,5.75C109.382,5.454 109.229,5.18 109.03,4.94C108.85,4.582 108.85,4.158 109.03,3.8C109.123,3.54 109.25,3.295 109.41,3.07C109.5,2.95 109.61,2.81 109.71,2.7C109.799,2.608 109.896,2.524 110,2.45ZM89.49,1.52C88.43,1.68 86.63,1.8 85.88,1.91C85.153,2.074 84.414,2.174 83.67,2.21C83.272,2.114 82.919,1.885 82.67,1.56C82.58,1.47 82.82,1.07 82.92,0.81C83.29,-0.27 84.21,0.11 85,0.09C85.79,0.07 88.09,0.4 88.93,0.34C89.77,0.28 90,0.5 89.68,1.4C89.63,1.53 89.38,1.58 89.49,1.52ZM104.92,37.51C104.68,36.02 104.5,34.77 104.41,33.51C104.333,32.329 104.367,31.144 104.51,29.97C104.51,29.73 105.29,29.41 105.64,29.47C105.99,29.53 106.57,30.06 106.56,30.33C106.37,32.33 106.12,34.4 105.97,36.45C105.993,36.805 105.969,37.161 105.9,37.51C105.85,37.66 105.49,37.78 105.28,37.77C105.07,37.76 104.94,37.52 104.92,37.51ZM105.66,43.19C106.39,43.41 106.39,44.03 106.45,44.55C106.582,45.668 106.639,46.794 106.62,47.92C106.565,48.692 106.565,49.468 106.62,50.24C106.72,50.79 106.54,51.11 105.94,51.38C105.826,51.395 105.712,51.349 105.64,51.26C105.11,49.47 104.96,47.75 104.54,45.93C104.45,45.57 104.31,45.21 104.2,44.85C104.185,44.767 104.177,44.683 104.177,44.598C104.177,43.825 104.814,43.188 105.587,43.188C105.612,43.188 105.636,43.189 105.66,43.19ZM106.09,22.57C106.09,21.48 106.35,19.69 106.4,18.92C106.389,18.202 106.452,17.485 106.59,16.78C106.67,16.45 107.12,16.12 107.47,15.88C107.58,15.8 107.93,16.07 108.17,16.2C109.17,16.73 108.54,17.66 108.36,18.46C108.18,19.26 107.36,21.38 107.36,22.22C107.36,23.06 107.01,23.27 106.19,22.77C106.05,22.7 106.05,22.44 106.09,22.57Z" style="fill:white;fill-rule:nonzero;"/>
</svg>

<svg xmlns="http://www.w3.org/2000/svg" viewBox="0 0 111.58 51.38"><path d="M21.84 1.74c-1.48.26-2.71.52-4 .67a22.86 22.86 0 01-3.51.16c-.23 0-.63-.72-.6-1.07s.49-1 .77-1c2.07 0 4.14.13 6.2.21a4.76 4.76 0 011.08.06c.15 0 .28.4.26.61s-.19.34-.2.36zm5.69-.66c.26-.72.89-.69 1.41-.73a24.45 24.45 0 013.42.08 16.86 16.86 0 002.33.23c.57-.05.86.17 1.05.8a.36.36 0 01-.15.29c-1.84.3-3.55.27-5.39.56-.36.06-.72.17-1.08.26a1.41 1.41 0 01-1.59-1.49zM6.89 2c-1.07.16-2.86.28-3.61.4a13 13 0 01-2.21.29 1.84 1.84 0 01-1-.65c-.08-.08.16-.49.26-.74C.68.23 1.61.61 2.4.59S5.48.9 6.32.85s1.11.16.76 1c-.08.15-.3.23-.19.15zm56.25-.51c-1.48.26-2.71.52-4 .66a21.67 21.67 0 01-3.51.17c-.23 0-.63-.72-.6-1.07s.5-1 .77-1c2.07 0 4.14.13 6.21.21a5.37 5.37 0 011.07 0c.15.05.28.41.27.62s-.2.39-.21.41zm5.7-.66c.25-.72.88-.69 1.41-.73a22.91 22.91 0 013.41.08A17 17 0 0076 .41c.57 0 .86.17 1.05.8 0 .08-.08.28-.15.29-1.84.3-3.55.27-5.39.56-.36.06-.72.17-1.08.26A1.4 1.4 0 0168.84.83zm-20.65.94c-1.07.16-2.86.28-3.61.39a12 12 0 01-2.21.3 1.84 1.84 0 01-1-.65c-.08-.09.16-.49.26-.75C42 0 42.91.36 43.7.34s3.09.31 3.93.26 1.1.16.75 1c-.05.18-.3.23-.19.17zm56.07-.52c-1.64.24-3 .51-4.18.66a20.83 20.83 0 01-3.31.16c-.21 0-.47-.72-.39-1.07s.68-1 1-1c2.23 0 4.41.12 6.48.27a4.44 4.44 0 011.07.08c.12.05 0 .37-.14.55a2.44 2.44 0 01-.53.35zm5.74 1.2c.74-.24 1.09.35 1.29.85a5.84 5.84 0 010 3.56c-.18.81-.64 1.69-.79 2.42a1.79 1.79 0 01-1.18 1.27c-.09 0-.28 0-.27-.05.19-1.6.83-3.19.43-4.75a2.5 2.5 0 00-.45-.81 1.27 1.27 0 010-1.14 3 3 0 01.38-.73c.09-.12.2-.26.3-.37a2.06 2.06 0 01.29-.25zm-20.51-.93c-1.06.16-2.86.28-3.61.39a12.89 12.89 0 01-2.21.3 1.79 1.79 0 01-1-.65c-.09-.09.15-.49.25-.75.37-1.08 1.29-.7 2.08-.72s3.09.31 3.93.25 1.07.16.75 1.06c-.05.13-.3.18-.19.12zm15.43 35.99c-.24-1.49-.42-2.74-.51-4a19 19 0 01.1-3.54c0-.24.78-.56 1.13-.5s.93.59.92.86c-.19 2-.44 4.07-.59 6.12a4.08 4.08 0 01-.07 1.06c-.05.15-.41.27-.62.26s-.34-.25-.36-.26zm.74 5.68c.73.22.73.84.79 1.36a25.19 25.19 0 01.17 3.37 16.29 16.29 0 000 2.32c.1.55-.08.87-.68 1.14a.33.33 0 01-.3-.12c-.53-1.79-.68-3.51-1.1-5.33-.09-.36-.23-.72-.34-1.08a1.41 1.41 0 011.46-1.66zm.43-20.62c0-1.09.26-2.88.31-3.65a10.33 10.33 0 01.19-2.14c.08-.33.53-.66.88-.9.11-.08.46.19.7.32 1 .53.37 1.46.19 2.26s-1 2.92-1 3.76-.35 1.05-1.17.55c-.14-.07-.14-.33-.1-.2z" fill="#FFFFFF"/></svg>
